Assets/Icons/interaction/paper-plane.svg

<svg enable-background="new 0 0 60 60" viewBox="0 0 60 60" xmlns="http://www.w3.org/2000/svg"><path d="m55.06 2.27-51.4 24.75c-1.71.82-1.42 3.35.44 3.76l20.62 4.51 4.51 20.62c.41 1.86 2.93 2.15 3.76.44l24.74-51.41c.82-1.71-.96-3.49-2.67-2.67zm-47.49 26.19 42.13-20.28-24.2 24.2zm23.97 23.97-3.92-17.93 24.2-24.2z"/><path d="m20.29 38.29c-.2-.2-.51-.2-.71 0l-14.29 14.3c-.2.2-.2.51 0 .71l1.41 1.41c.2.2.51.2.71 0l12.88-12.88c.98-.98.98-2.56 0-3.54z"/><path d="m9.01 42.77 2.47-2.47c.98-.98.98-2.56 0-3.54-.2-.2-.51-.2-.71 0l-3.89 3.89c-.2.2-.2.51 0 .71l1.41 1.41c.21.2.52.2.72 0z"/><path d="m22.27 45.95-7.34 7.34c-.2.2-.2.51 0 .71l1.41 1.41c.2.2.51.2.71 0l5.92-5.92c.98-.98.98-2.56 0-3.54-.19-.19-.51-.19-.7 0z"/></svg>

<?xml version="1.0" encoding="utf-8"?>
<!-- Generator: Adobe Illustrator 21.1.0, SVG Export Plug-In . SVG Version: 6.00 Build 0)  -->
<svg version="1.1" id="EPS" xmlns="http://www.w3.org/2000/svg" xmlns:xlink="http://www.w3.org/1999/xlink" x="0px" y="0px"
	 viewBox="0 0 60 60" style="enable-background:new 0 0 60 60;" xml:space="preserve">
<g>
	<path d="M55.06,2.27L3.66,27.02c-1.71,0.82-1.42,3.35,0.44,3.76l20.62,4.51l4.51,20.62c0.41,1.86,2.93,2.15,3.76,0.44L57.73,4.94
		C58.55,3.23,56.77,1.45,55.06,2.27z M7.57,28.46L49.7,8.18l-24.2,24.2L7.57,28.46z M31.54,52.43L27.62,34.5l24.2-24.2L31.54,52.43z
		"/>
	<path d="M20.29,38.29c-0.2-0.2-0.51-0.2-0.71,0L5.29,52.59c-0.2,0.2-0.2,0.51,0,0.71l1.41,1.41c0.2,0.2,0.51,0.2,0.71,0
		l12.88-12.88C21.27,40.85,21.27,39.27,20.29,38.29z"/>
	<path d="M9.01,42.77l2.47-2.47c0.98-0.98,0.98-2.56,0-3.54c-0.2-0.2-0.51-0.2-0.71,0l-3.89,3.89c-0.2,0.2-0.2,0.51,0,0.71
		l1.41,1.41C8.5,42.97,8.81,42.97,9.01,42.77z"/>
	<path d="M22.27,45.95l-7.34,7.34c-0.2,0.2-0.2,0.51,0,0.71l1.41,1.41c0.2,0.2,0.51,0.2,0.71,0l5.92-5.92
		c0.98-0.98,0.98-2.56,0-3.54C22.78,45.76,22.46,45.76,22.27,45.95z"/>
</g>
</svg>
